storage/app/icons/phosphoricons/fill/columns-plus-right-fill.svg

<svg xmlns="http://www.w3.org/2000/svg" fill="currentColor" viewBox="0 0 256 256"><path d="M96 48v160a16 16 0 0 1-16 16H56a16 16 0 0 1-16-16V48a16 16 0 0 1 16-16h24a16 16 0 0 1 16 16m56-16h-24a16 16 0 0 0-16 16v160a16 16 0 0 0 16 16h24a16 16 0 0 0 16-16V48a16 16 0 0 0-16-16m88 88h-16v-16a8 8 0 0 0-16 0v16h-16a8 8 0 0 0 0 16h16v16a8 8 0 0 0 16 0v-16h16a8 8 0 0 0 0-16"/></svg>

<svg xmlns="http://www.w3.org/2000/svg" viewBox="0 0 256 256" fill="currentColor"><path d="M96,48V208a16,16,0,0,1-16,16H56a16,16,0,0,1-16-16V48A16,16,0,0,1,56,32H80A16,16,0,0,1,96,48Zm56-16H128a16,16,0,0,0-16,16V208a16,16,0,0,0,16,16h24a16,16,0,0,0,16-16V48A16,16,0,0,0,152,32Zm88,88H224V104a8,8,0,0,0-16,0v16H192a8,8,0,0,0,0,16h16v16a8,8,0,0,0,16,0V136h16a8,8,0,0,0,0-16Z"/></svg>
